public/social/vk.svg

<svg width="320" height="186" viewBox="0 0 320 186" fill="none" xmlns="http://www.w3.org/2000/svg">
<path d="M193.23 89.2777C187.395 87.0837 187.395 78.7046 187.033 72.8696C185.574 52.0851 192.868 20.3541 184.115 6.86347C177.919 -1.16556 148.008 -0.430343 129.779 0.666647C124.668 1.40186 118.471 2.48719 114.095 4.68117C109.719 6.87515 105.342 10.5162 105.342 13.7955C105.342 18.5336 116.289 17.81 120.292 24.0068C124.668 30.5771 124.668 44.7913 124.668 56.4614C124.668 69.952 122.474 87.8306 117.012 88.5542C108.622 88.9159 103.883 80.5251 99.5072 74.3283C90.7546 62.2964 82.002 47.3354 75.4318 32.7478C72.1525 25.0922 70.3202 16.7014 65.5822 13.4221C58.2884 8.31057 45.1595 7.9488 32.3924 8.31057C20.7223 8.67234 3.94072 7.21358 0.661423 14.1456C-1.89433 21.8012 3.57895 29.095 6.49647 35.3035C21.4459 67.7581 37.4923 96.2098 57.1914 123.191C75.4318 148.352 92.5635 168.413 126.115 178.986C135.603 181.903 177.172 190.294 185.562 178.986C188.48 174.609 187.756 164.76 189.215 157.466C190.674 150.172 192.495 142.878 199.427 142.517C205.262 142.155 208.541 147.255 212.194 150.908C216.208 154.922 219.487 158.201 222.405 161.854C229.337 168.786 236.631 178.262 245.383 181.915C257.415 187.026 276.017 185.568 293.523 184.832C307.748 184.471 317.96 181.553 319.057 173.162C319.792 166.592 312.486 157.116 308.11 151.643C297.164 138.152 292.064 134.138 279.659 121.732C274.185 116.259 267.253 110.424 267.253 103.865C266.891 99.8508 270.171 96.2098 273.088 92.1952C285.855 73.2313 298.622 59.7407 310.293 40.0416C313.572 34.2065 321.239 20.7159 318.322 14.1456C315.042 6.85181 296.802 9.03411 285.494 9.03411C270.906 9.03411 251.942 7.93712 248.289 10.8546C241.357 15.5927 238.44 23.26 235.16 30.5538C227.867 47.3354 218.017 64.4671 207.806 77.2342C204.153 81.6105 197.233 90.7248 193.218 89.266L193.23 89.2777Z" fill="#FB6BB3"/>
</svg>

<svg xmlns="http://www.w3.org/2000/svg" width="320" height="186" fill="none"><path fill="#FB6BB3" d="M193.23 89.278c-5.835-2.194-5.835-10.573-6.197-16.408-1.459-20.785 5.835-52.516-2.918-66.007-6.196-8.029-36.107-7.293-54.336-6.196-5.111.735-11.308 1.82-15.684 4.014-4.376 2.194-8.753 5.835-8.753 9.114 0 4.739 10.947 4.015 14.95 10.212 4.376 6.57 4.376 20.784 4.376 32.454 0 13.491-2.194 31.37-7.656 32.093-8.39.362-13.129-8.029-17.505-14.226-8.752-12.032-17.505-26.993-24.075-41.58-3.28-7.656-5.112-16.047-9.85-19.326-7.294-5.111-20.422-5.473-33.19-5.111-11.67.361-28.451-1.097-31.73 5.835-2.556 7.655 2.917 14.949 5.834 21.157 14.95 32.455 30.996 60.907 50.695 87.888 18.24 25.161 35.373 45.222 68.924 55.795 9.488 2.917 51.057 11.308 59.447 0 2.918-4.377 2.194-14.226 3.653-21.52 1.459-7.294 3.28-14.588 10.212-14.949 5.835-.362 9.114 4.738 12.767 8.391 4.014 4.014 7.293 7.293 10.211 10.946 6.932 6.932 14.226 16.408 22.978 20.061 12.032 5.111 30.634 3.653 48.14 2.917 14.225-.361 24.437-3.279 25.534-11.67.735-6.57-6.571-16.046-10.947-21.519-10.946-13.491-16.046-17.505-28.451-29.911-5.474-5.473-12.406-11.308-12.406-17.867-.362-4.014 2.918-7.655 5.835-11.67 12.767-18.964 25.534-32.454 37.205-52.153 3.279-5.836 10.946-19.326 8.029-25.896-3.28-7.294-21.52-5.112-32.828-5.112-14.588 0-33.552-1.097-37.205 1.82-6.932 4.739-9.849 12.406-13.129 19.7-7.293 16.781-17.143 33.913-27.354 46.68-3.653 4.377-10.573 13.49-14.588 12.032l.012.012Z"/></svg>
